X: 4
T: The Grumbling Old Man And Woman
R: reel
M: 4/4
L: 1/8
K: Edor
|:GEBE GEBE|FDAD FDAD|GEBE GEBE| FEDF E2EF|
GEBE GEBE|FDAD FDAD|GEBE GEBE| FEDF E2z2||
|:B2BA ^GABc|d2dc BA^GA|BcBA ^GABA|Bee^d e2Bc|
=dcBA ^GABc|d2dB AFDF|=G2FG EDBc|dBAF E2EF||


Tune 1006	Setting 14224

